svgs/sharp-light/curling-stone.svg

<svg xmlns="http://www.w3.org/2000/svg" viewBox="0 0 576 512"><!--! Font Awesome Pro 6.4.2 by @fontawesome - https://fontawesome.com License - https://fontawesome.com/license (Commercial License) Copyright 2023 Fonticons, Inc. --><path d="M176 32H160V48 160H112 96v16 48H64L0 288v24 24 80l64 64H512l64-64V336 312 288l-64-64H480V176 160H464 192V64H400h16V32H400 176zM448 224H128V192h32 32H448v32zM32 312V301.3L77.3 256H498.7L544 301.3V312v24H32V312zm0 56H544v34.7L498.7 448H77.3L32 402.7V368z"/></svg>

<svg xmlns="http://www.w3.org/2000/svg" viewBox="0 0 576 512"><!--! Font Awesome Pro 6.6.0 by @fontawesome - https://fontawesome.com License - https://fontawesome.com/license (Commercial License) Copyright 2024 Fonticons, Inc. --><path d="M176 32l-16 0 0 16 0 112-48 0-16 0 0 16 0 48-32 0L0 288l0 24 0 24 0 80 64 64 448 0 64-64 0-80 0-24 0-24-64-64-32 0 0-48 0-16-16 0-272 0 0-96 208 0 16 0 0-32-16 0L176 32zM448 224l-320 0 0-32 32 0 32 0 256 0 0 32zM32 312l0-10.7L77.3 256l421.5 0L544 301.3l0 10.7 0 24L32 336l0-24zm0 56l512 0 0 34.7L498.7 448 77.3 448 32 402.7 32 368z"/></svg>
